X:1
T:The Swan
T:Lumps of Plum Pudding
M:6/8
L:1/8
O:Duns Tew
P:A(AB2)4
K:G
P:A
B>AG gfg | ded G2A | BAG GFG | ABA  D2c | 
BAG  gfg | def g2e | dBG ABc | d2B G3  |]
P:B
dfg  dfg | d2B GAB | cde cAB | cAA A2c | 
BAG  gfg | def g2e | dBG ABc | d2B G3  |]
</abc>
